public/images/gitbook.svg

<svg width="32" height="32" viewBox="0 0 32 32" fill="none" xmlns="http://www.w3.org/2000/svg">
<g id="Group 82">
<rect id="Rectangle 140" x="0.75" y="0.75" width="30.5" height="30.5" rx="7.25" stroke="white" stroke-width="1.5"/>
<path id="Vector" d="M15.5514 21.5052C15.6245 21.5053 15.6969 21.5212 15.7643 21.5519C15.8318 21.5827 15.8931 21.6277 15.9447 21.6844C15.9963 21.7411 16.0372 21.8084 16.0651 21.8824C16.093 21.9565 16.1073 22.0358 16.1072 22.1159C16.1071 22.196 16.0926 22.2752 16.0645 22.3492C16.0364 22.4231 15.9954 22.4903 15.9436 22.5468C15.8919 22.6034 15.8304 22.6482 15.7629 22.6787C15.6953 22.7093 15.6229 22.7249 15.5498 22.7248C15.4022 22.7246 15.2607 22.6601 15.1565 22.5456C15.0523 22.4311 14.9939 22.2759 14.9941 22.1141C14.9943 21.9524 15.0531 21.7974 15.1576 21.6832C15.2622 21.569 15.4038 21.5049 15.5514 21.5052ZM24.2789 17.7343C24.2058 17.7343 24.1334 17.7184 24.0659 17.6877C23.9984 17.657 23.9371 17.6121 23.8855 17.5554C23.8338 17.4987 23.7929 17.4315 23.7649 17.3575C23.737 17.2835 23.7227 17.2041 23.7227 17.1241C23.7228 17.044 23.7372 16.9647 23.7653 16.8907C23.7933 16.8168 23.8343 16.7496 23.886 16.693C23.9377 16.6364 23.9991 16.5915 24.0667 16.5609C24.1342 16.5303 24.2066 16.5146 24.2797 16.5147C24.4273 16.5148 24.5688 16.5791 24.6731 16.6936C24.7774 16.808 24.8359 16.9632 24.8358 17.1249C24.8357 17.2867 24.777 17.4417 24.6725 17.556C24.5681 17.6703 24.4265 17.7344 24.2789 17.7343ZM24.2789 15.2395C23.8226 15.24 23.385 15.4388 23.0623 15.7924C22.7397 16.1459 22.5582 16.6253 22.5578 17.1254C22.5578 17.3275 22.5887 17.5287 22.6488 17.7248L16.9638 21.0411C16.8061 20.7903 16.5952 20.5853 16.3492 20.4437C16.1031 20.3021 15.8293 20.2281 15.5514 20.2283C14.8951 20.2283 14.2974 20.6403 14.0076 21.2831L8.90052 18.332C8.36059 18.0214 7.95684 17.0482 7.99959 16.1616C8.02175 15.6993 8.16742 15.3401 8.38988 15.2013C8.5308 15.1146 8.70022 15.1215 8.88073 15.2248L8.91398 15.2447C10.2677 16.0254 14.6964 18.5818 14.8832 18.6764C15.1706 18.823 15.3305 18.882 15.8214 18.6269L24.9764 13.41C25.1109 13.3545 25.2677 13.2131 25.2677 12.9988C25.2677 12.7022 24.9874 12.5851 24.9867 12.5851C24.4657 12.3118 23.6653 11.9015 22.8847 11.5007C21.2159 10.6445 19.3246 9.67473 18.4941 9.19762C17.7768 8.78645 17.1997 9.13343 17.0968 9.20283L16.8973 9.31126C13.159 11.3368 8.15555 14.0519 7.87054 14.2419C7.36149 14.582 7.04561 15.2594 7.00445 16.1C6.94111 17.4333 7.561 18.8239 8.44847 19.3331L13.8493 22.3848C13.9088 22.8331 14.1135 23.2429 14.426 23.5395C14.7385 23.836 15.138 23.9995 15.5514 24C16.0029 23.9992 16.4361 23.8042 16.7578 23.4571C17.0795 23.1099 17.2641 22.6383 17.2717 22.1436L23.2204 18.6105C23.5213 18.869 23.8957 19.0104 24.2789 19.0104C24.7352 19.0099 25.1728 18.8111 25.4954 18.4575C25.8181 18.1039 25.9996 17.6245 26 17.1245C25.9996 16.6245 25.8181 16.1451 25.4954 15.7915C25.1728 15.4379 24.7352 15.2391 24.2789 15.2386" fill="white"/>
</g>
</svg>

<svg xmlns="http://www.w3.org/2000/svg" width="32" height="32" fill="none"><rect width="30.5" height="30.5" x=".75" y=".75" stroke="#fff" stroke-width="1.5" rx="7.25"/><path fill="#fff" d="M15.551 21.505a.531.531 0 0 1 .393.179.618.618 0 0 1 .121.198.661.661 0 0 1-.121.665.555.555 0 0 1-.181.132.514.514 0 0 1-.213.046.533.533 0 0 1-.394-.18.64.64 0 0 1-.162-.43.64.64 0 0 1 .164-.432.533.533 0 0 1 .393-.178Zm8.728-3.77a.514.514 0 0 1-.213-.047.555.555 0 0 1-.18-.133.618.618 0 0 1-.121-.197.663.663 0 0 1 0-.467.617.617 0 0 1 .121-.198.556.556 0 0 1 .18-.132.514.514 0 0 1 .214-.046.53.53 0 0 1 .393.179.64.64 0 0 1 .163.43.64.64 0 0 1-.163.432.533.533 0 0 1-.394.178Zm0-2.495c-.456 0-.894.199-1.217.552a1.983 1.983 0 0 0-.504 1.333c0 .203.03.404.09.6l-5.684 3.316a1.777 1.777 0 0 0-.615-.597 1.595 1.595 0 0 0-.798-.216c-.656 0-1.254.412-1.543 1.055L8.9 18.332c-.54-.31-.944-1.284-.901-2.17.022-.463.167-.822.39-.96.14-.087.31-.08.49.023l.034.02c1.354.78 5.782 3.337 5.97 3.431.287.147.447.206.937-.05l9.155-5.216c.135-.056.292-.197.292-.411 0-.297-.28-.414-.281-.414-.521-.273-1.322-.684-2.102-1.084-1.67-.856-3.56-1.826-4.39-2.303-.718-.412-1.295-.065-1.398.005l-.2.108c-3.738 2.026-8.741 4.74-9.026 4.93-.51.341-.825 1.018-.867 1.859-.063 1.333.557 2.724 1.444 3.233l5.401 3.052c.06.448.264.858.577 1.154.313.297.712.46 1.125.461a1.65 1.65 0 0 0 1.207-.543 1.98 1.98 0 0 0 .514-1.313l5.948-3.534c.301.259.676.4 1.059.4.456 0 .894-.199 1.216-.553.323-.353.505-.832.505-1.332 0-.5-.182-.98-.505-1.334a1.65 1.65 0 0 0-1.216-.552"/></svg>
